X:1
T:Christmas Joy
T:Christmas Joy
T:William Edie Marks
T:William Edie Marks, 1911
T:Public Domain Courtesy of the Cyber Hymnal™
T:Public Domain Courtesy of the Cyber Hymnal™
C:William Edie Marks
Z:Public Domain
Z:Courtesy of the Cyber Hymnal™
%%score ( 1 2 ) ( 3 4 )
L:1/8
Q:1/4=145
M:6/4
K:Eb
V:1 treble 
V:2 treble 
V:3 bass 
V:4 bass 
V:1
 [EG]2 [EG]2 [FA]2 [Ac]2 [GB]2 [EG]2 | E2 E2 [EF]2 [EA]2 [EG]2 [EF]2 | E6 [B,B]6 | %3
w: 1.~Glad hearts are sing- ing, For|Christ- mas is bring- ing us|joy, joy,|
w: 2.~Hail to the Strang- er Of|Beth- le- hem’s man- ger, oh,|joy, joy,|
w: 3.~An- gels are sing- kng, And|Christ- mas is bring- ig us|joy, joy,|
 [B,D]6- [B,D]4 z2 | [DF]2 [DF]2 [EG]2 [FA]2 [EG]2 [DF]2 | [EG]2 [EG]2 [FA]2 [GB]2 [Gc]2 [Ge]2 | %6
w: joy! *|Je- sus from Heav- en To|mor- tals is giv- en, oh,|
w: joy! *|Great is God’s fa- vor To|send us a Sav- ior, oh,|
w: joy! *|In the glad mea- sure We|join with great plea- sure, oh,|
 [Fd]6 [Fc]6 | [Fd-]6 [Ad]4 z2 | [Ge]2 [Ge]2 [Ge]2 [Ad]2 [Ae]2 [Ac]2 | [GB]6 [EG]6 | %10
w: joy, joy,|joy! Give|un- to Him a- dor- a-|tion, Mor-|
w: joy, joy,|joy! With|us He still is re- main-|ing, No-|
w: joy, joy,|joy! Sing|of the joys of sal- va-|tion, Cheer|
 [GB]2 [Ac]2 [GB]2 [EG]2 [DA]2 [EB]2 | [Ec]6- [Ec]4 z2 | [Ac]2 [A=B]2 [Ac]2 [Ae]2 [Ad]2 [Ac]2 | %13
w: tals, your best songs em- ploy;|Per- *|fect sal- va- tion He of-|
w: thing His love can de- stroy;|King *|He is reign- ing, And we|
w: those whom trou- bles an- noy;|Send *|to each na- tion The great|
 [GB]2 [^F=A]2 [GB]2 [_Ac]2 [Ad]2 [Ae]2 | [EG]6 [DF]6 | E6- E4 z2 |:"^Refrain" [Ge]6 [EG]6 | %17
w: fers each na- tion, oh, joy,|joy, joy!|Joy, *|joy, joy!|
w: are ob- tain- ing great joy,|joy, joy!|||
w: pro- cla- ma- tion of joy,|joy, joy!|||
 [GB]6- [GB]4 z2 | [=Ec]6 [EG]6 | [FA]6- [FA]4 z2 |1 [FA]2 [DF]2 [EG]2 [FA]2 [EG]2 [DF]2 | %21
w: Joy, *|joy, joy!|An- *|gels are sing- ing And Christ-|
w: ||||
w: ||||
 [EG]2 [EG]2 [FA]2 [GB]2 [Gc]2 [Ge]2 | [Fd]6 [Fc]6 | [Fd]6- [Fd]4 z2 :|2 %24
w: mas is bring- ing us joy,|joy, joy!|Mer- *|
w: |||
w: |||
 [FA]2 [DF]2 [EG]2 [FA]2 [EG]2 [DF]2 || [EG]2 [FA]2 [GB]2 [Ac]2 [Ad]2 [Ae]2 | [EG]6 [DF]6 | %27
w: ry bells ring- ing, And Christ-|mas is bring- ing us joy,|joy, joy!|
w: |||
w: |||
 E6- E4 z2 |] %28
w: |
w: |
w: |
V:2
 x12 | E2 E2 x8 | E6 x6 | x12 | x12 | x12 | x12 | x12 | x12 | x12 | x12 | x12 | x12 | x12 | x12 | %15
 E6- E4 x2 |: x12 | x12 | x12 | x12 |1 x12 | x12 | x12 | x12 :|2 x12 || x12 | x12 | E6- E4 x2 |] %28
V:3
 [E,B,]2 [E,B,]2 [E,B,]2 [E,E]2 [E,E]2 [E,B,]2 | [E,G,]2 [E,G,]2 [E,A,]2 [E,C]2 [E,B,]2 [E,A,]2 | %2
w: ~ ~ ~ ~ ~ ~|~ ~ ~ ~ ~ ~|
 [E,G,]6 [E,G,]6 | [F,A,]6- [F,A,]4 z2 | [B,,B,]2 [B,,B,]2 [B,,B,]2 [B,,B,]2 [B,,B,]2 [B,,B,]2 | %5
w: ~ ~|~ *|~ ~ ~ ~ ~ ~|
 [E,B,]2 [E,B,]2 [E,B,]2 [E,E]2 [E,E]2 [E,B,]2 | [F,B,]6 [F,=A,]6 | z2 C2 B,2- B,4 x2 | %8
w: ~ ~ ~ ~ ~ ~|~ ~|~ ~ *|
 [E,B,]2 [E,B,]2 [E,B,]2 [E,=B,]2 [E,C]2 [E,E]2 | [E,E]6 [E,B,]6 | %10
w: ~ ~ ~ ~ ~ ~|~ ~|
 [E,E]2 [E,E]2 [E,E]2 [E,B,]2 [F,B,]2 [G,B,]2 | A,6- A,4 z2 | %12
w: ~ ~ ~ ~ ~ ~|~ *|
 [A,E]2 [A,D]2 [A,E]2 [A,C]2 [A,C]2 [A,E]2 | [E,E]2 [E,E]2 [E,E]2 [A,E]2 [A,D]2 [A,C]2 | %14
w: ~ ~ ~ ~ ~ ~|~ ~ ~ ~ ~ ~|
 B,6 [B,,A,]6 | [E,G,]6- [E,G,]4 z2 |: [E,B,]6 [E,B,]6 | B,6- B,4 _D,2 | [C,G,]6 [C,C]6 | %19
w: ~ ~|~ *|~ ~|Joy, * joy,|ous! joy,|
 C6- C4 C,2 |1 [B,,B,]2 [B,,B,]2 [B,,B,]2 [B,,B,]2 [B,,B,]2 [B,,B,]2 | %21
w: grand * and||
 [E,B,]2 [E,B,]2 [E,B,]2 [E,E]2 [E,E]2 [E,B,]2 | [F,B,]6 [F,=A,]6 | z2 C2 B,2- B,4 F,2 :|2 %24
w: |||
 [B,,B,]2 [B,,B,]2 [B,,B,]2 [B,,B,]2 [B,,B,]2 [B,,B,]2 || %25
w: |
 [E,B,]2 [E,B,]2 [E,E]2 [A,E]2 [A,D]2 [A,C]2 | B,6 [B,,A,]6 | [E,G,]6- [E,G,]4 z2 |] %28
w: |||
V:4
 x12 | x12 | x12 | x12 | x12 | x12 | x12 | B,6 (A,2 G,2 F,2) | x12 | x12 | x12 | A,6- A,4 x2 | %12
w: ||||||||||||
 x12 | x12 | B,6 x6 | x12 |: x12 | E,2 G,2 F,2 E,2 _D,2 x2 | x12 | F,2 A,2 G,2 F,2 D,2 x2 |1 x12 | %21
w: |||||* Christ- mas is glo-||vic- to- ri- ous! *||
 x12 | x12 | B,6 A,2 G,2 x2 :|2 x12 || x12 | B,6 x6 | x12 |] %28
w: |||||||

